X: 26351
T: Mermaid's Song, The
R: waltz
M: 3/4
K: Dmixolydian
|:D3ED2|F4G2|A4G2|F2<D4|D3ED2|F4G2|A4G2|F6|
E3FE2|E4G2|A4G2|E2<C4|D3ED2|FA5|E5D|D6:|
|:F4A2|d4A2|B4G2|AD5|F4A2|d4A2|BG5|A6|
A4G2|FD5|G4F2|EC5|D3ED2|FA5|E5D|D6:|

